src/svg/mark-github.svg

<svg height="16" width="16" xmlns="http://www.w3.org/2000/svg" viewBox="0 0 16 16">
  <path d="M8 0C3.58 0 0 3.58 0 8c0 3.54 2.29 6.53 5.47 7.59 0.4 0.07 0.55-0.17 0.55-0.38 0-0.19-0.01-0.82-0.01-1.49-2.01 0.37-2.53-0.49-2.69-0.94-0.09-0.23-0.48-0.94-0.82-1.13-0.28-0.15-0.68-0.52-0.01-0.53 0.63-0.01 1.08 0.58 1.23 0.82 0.72 1.21 1.87 0.87 2.33 0.66 0.07-0.52 0.28-0.87 0.51-1.07-1.78-0.2-3.64-0.89-3.64-3.95 0-0.87 0.31-1.59 0.82-2.15-0.08-0.2-0.36-1.02 0.08-2.12 0 0 0.67-0.21 2.2 0.82 0.64-0.18 1.32-0.27 2-0.27 0.68 0 1.36 0.09 2 0.27 1.53-1.04 2.2-0.82 2.2-0.82 0.44 1.1 0.16 1.92 0.08 2.12 0.51 0.56 0.82 1.27 0.82 2.15 0 3.07-1.87 3.75-3.65 3.95 0.29 0.25 0.54 0.73 0.54 1.48 0 1.07-0.01 1.93-0.01 2.2 0 0.21 0.15 0.46 0.55 0.38C13.71 14.53 16 11.53 16 8 16 3.58 12.42 0 8 0z" />
</svg>

<?xml version="1.0" encoding="UTF-8" standalone="no"?>
<svg width="16px" height="16px" viewBox="0 0 16 16" version="1.1" xmlns="http://www.w3.org/2000/svg" xmlns:xlink="http://www.w3.org/1999/xlink">
    <!-- Generator: Sketch 3.7.1 (28215) - http://www.bohemiancoding.com/sketch -->
    <title>mark-github</title>
    <desc>Created with Sketch.</desc>
    <defs></defs>
    <g id="Octicons" stroke="none" stroke-width="1" fill="none" fill-rule="evenodd">
        <g id="mark-github" fill="#000000">
            <path d="M8,0 C3.58,0 0,3.58 0,8 C0,11.54 2.29,14.53 5.47,15.59 C5.87,15.66 6.02,15.42 6.02,15.21 C6.02,15.02 6.01,14.39 6.01,13.72 C4,14.09 3.48,13.23 3.32,12.78 C3.23,12.55 2.84,11.84 2.5,11.65 C2.22,11.5 1.82,11.13 2.49,11.12 C3.12,11.11 3.57,11.7 3.72,11.94 C4.44,13.15 5.59,12.81 6.05,12.6 C6.12,12.08 6.33,11.73 6.56,11.53 C4.78,11.33 2.92,10.64 2.92,7.58 C2.92,6.71 3.23,5.99 3.74,5.43 C3.66,5.23 3.38,4.41 3.82,3.31 C3.82,3.31 4.49,3.1 6.02,4.13 C6.66,3.95 7.34,3.86 8.02,3.86 C8.7,3.86 9.38,3.95 10.02,4.13 C11.55,3.09 12.22,3.31 12.22,3.31 C12.66,4.41 12.38,5.23 12.3,5.43 C12.81,5.99 13.12,6.7 13.12,7.58 C13.12,10.65 11.25,11.33 9.47,11.53 C9.76,11.78 10.01,12.26 10.01,13.01 C10.01,14.08 10,14.94 10,15.21 C10,15.42 10.15,15.67 10.55,15.59 C13.71,14.53 16,11.53 16,8 C16,3.58 12.42,0 8,0 L8,0 Z" id="Shape"></path>
        </g>
    </g>
</svg>
